apps/static/images/HolisBlanco.svg

<svg width="88" height="30" viewBox="0 0 88 30" fill="none" xmlns="http://www.w3.org/2000/svg">
<path d="M23.045 4.32498V29H16.185V19.095H7.82002V29H0.960022V4.32498H7.82002V13.6H16.185V4.32498H23.045Z" fill="white"/>
<path d="M36.1058 29.245C34.1458 29.245 32.3841 28.8366 30.8208 28.02C29.2808 27.2033 28.0674 26.0366 27.1808 24.52C26.2941 23.0033 25.8508 21.2183 25.8508 19.165C25.8508 17.135 26.2941 15.3616 27.1808 13.845C28.0908 12.3283 29.3158 11.1616 30.8558 10.345C32.4191 9.52831 34.1808 9.11998 36.1408 9.11998C38.1008 9.11998 39.8508 9.52831 41.3908 10.345C42.9541 11.1616 44.1791 12.3283 45.0658 13.845C45.9758 15.3616 46.4308 17.135 46.4308 19.165C46.4308 21.195 45.9758 22.98 45.0658 24.52C44.1791 26.0366 42.9541 27.2033 41.3908 28.02C39.8274 28.8366 38.0658 29.245 36.1058 29.245ZM36.1058 23.295C37.0624 23.295 37.8558 22.945 38.4858 22.245C39.1391 21.5216 39.4658 20.495 39.4658 19.165C39.4658 17.835 39.1391 16.82 38.4858 16.12C37.8558 15.42 37.0741 15.07 36.1408 15.07C35.2074 15.07 34.4258 15.42 33.7958 16.12C33.1658 16.82 32.8508 17.835 32.8508 19.165C32.8508 20.5183 33.1541 21.545 33.7608 22.245C34.3674 22.945 35.1491 23.295 36.1058 23.295Z" fill="white"/>
<path d="M56.0817 3.09998V29H49.2217V3.09998H56.0817Z" fill="white"/>
<path d="M63.4533 7.54498C62.24 7.54498 61.26 7.21831 60.5133 6.56498C59.79 5.88831 59.4283 5.04831 59.4283 4.04498C59.4283 3.01831 59.79 2.16664 60.5133 1.48998C61.26 0.813309 62.24 0.474976 63.4533 0.474976C64.6433 0.474976 65.6 0.813309 66.3233 1.48998C67.07 2.16664 67.4433 3.01831 67.4433 4.04498C67.4433 5.04831 67.07 5.88831 66.3233 6.56498C65.6 7.21831 64.6433 7.54498 63.4533 7.54498ZM66.8483 9.36498V29H59.9883V9.36498H66.8483Z" fill="white"/>
<path d="M79.1199 29.245C77.3466 29.245 75.7599 28.9533 74.3599 28.37C72.9833 27.7633 71.8866 26.9466 71.0699 25.92C70.2766 24.87 69.8333 23.6916 69.7399 22.385H76.3899C76.4833 23.015 76.7749 23.505 77.2649 23.855C77.7549 24.205 78.3616 24.38 79.0849 24.38C79.6449 24.38 80.0883 24.2633 80.4149 24.03C80.7416 23.7966 80.9049 23.4933 80.9049 23.12C80.9049 22.63 80.6366 22.2683 80.0999 22.035C79.5633 21.8016 78.6766 21.545 77.4399 21.265C76.0399 20.985 74.8733 20.67 73.9399 20.32C73.0066 19.97 72.1899 19.3983 71.4899 18.605C70.8133 17.8116 70.4749 16.7383 70.4749 15.385C70.4749 14.2183 70.7899 13.1683 71.4199 12.235C72.0499 11.2783 72.9716 10.52 74.1849 9.95998C75.4216 9.39998 76.9033 9.11998 78.6299 9.11998C81.1966 9.11998 83.2149 9.74998 84.6849 11.01C86.1549 12.27 87.0066 13.9266 87.2399 15.98H81.0449C80.9283 15.35 80.6483 14.8716 80.2049 14.545C79.7849 14.195 79.2133 14.02 78.4899 14.02C77.9299 14.02 77.4983 14.125 77.1949 14.335C76.9149 14.545 76.7749 14.8366 76.7749 15.21C76.7749 15.6766 77.0433 16.0383 77.5799 16.295C78.1166 16.5283 78.9799 16.7733 80.1699 17.03C81.5933 17.3333 82.7716 17.6716 83.7049 18.045C84.6616 18.4183 85.4899 19.025 86.1899 19.865C86.9133 20.6816 87.2749 21.8016 87.2749 23.225C87.2749 24.3683 86.9366 25.395 86.2599 26.305C85.6066 27.215 84.6616 27.9383 83.4249 28.475C82.2116 28.9883 80.7766 29.245 79.1199 29.245Z" fill="white"/>
</svg>

<svg width="88" height="30" fill="none" xmlns="http://www.w3.org/2000/svg"><path d="M23.045 4.325V29h-6.86v-9.905H7.82V29H.96V4.325h6.86V13.6h8.365V4.325h6.86zm13.061 24.92c-1.96 0-3.722-.408-5.285-1.225a9.058 9.058 0 01-3.64-3.5c-.887-1.517-1.33-3.302-1.33-5.355 0-2.03.443-3.803 1.33-5.32a9.296 9.296 0 013.675-3.5c1.563-.817 3.325-1.225 5.285-1.225s3.71.408 5.25 1.225a9 9 0 013.675 3.5c.91 1.517 1.365 3.29 1.365 5.32 0 2.03-.455 3.815-1.365 5.355a9.002 9.002 0 01-3.675 3.5c-1.564.817-3.325 1.225-5.285 1.225zm0-5.95c.956 0 1.75-.35 2.38-1.05.653-.723.98-1.75.98-3.08s-.327-2.345-.98-3.045c-.63-.7-1.412-1.05-2.345-1.05-.934 0-1.715.35-2.345 1.05-.63.7-.945 1.715-.945 3.045 0 1.353.303 2.38.91 3.08.606.7 1.388 1.05 2.345 1.05zM56.082 3.1V29h-6.86V3.1h6.86zm7.371 4.445c-1.213 0-2.193-.327-2.94-.98-.723-.677-1.085-1.517-1.085-2.52 0-1.027.362-1.878 1.085-2.555C61.26.813 62.24.475 63.453.475c1.19 0 2.147.338 2.87 1.015.747.677 1.12 1.528 1.12 2.555 0 1.003-.373 1.843-1.12 2.52-.723.653-1.68.98-2.87.98zm3.395 1.82V29h-6.86V9.365h6.86zm12.272 19.88c-1.773 0-3.36-.292-4.76-.875-1.377-.607-2.473-1.423-3.29-2.45a6.519 6.519 0 01-1.33-3.535h6.65c.093.63.385 1.12.875 1.47.49.35 1.097.525 1.82.525.56 0 1.003-.117 1.33-.35.327-.233.49-.537.49-.91 0-.49-.268-.852-.805-1.085-.537-.233-1.423-.49-2.66-.77-1.4-.28-2.567-.595-3.5-.945-.933-.35-1.75-.922-2.45-1.715-.677-.793-1.015-1.867-1.015-3.22 0-1.167.315-2.217.945-3.15.63-.957 1.552-1.715 2.765-2.275 1.237-.56 2.718-.84 4.445-.84 2.567 0 4.585.63 6.055 1.89 1.47 1.26 2.322 2.917 2.555 4.97h-6.195c-.117-.63-.397-1.108-.84-1.435-.42-.35-.992-.525-1.715-.525-.56 0-.992.105-1.295.315-.28.21-.42.502-.42.875 0 .467.268.828.805 1.085.537.233 1.4.478 2.59.735 1.423.303 2.602.642 3.535 1.015.957.373 1.785.98 2.485 1.82.723.817 1.085 1.937 1.085 3.36a5.03 5.03 0 01-1.015 3.08c-.653.91-1.598 1.633-2.835 2.17-1.213.513-2.648.77-4.305.77z" fill="#fff"/></svg>
